!!!!SEGMENT: pl-sa--552-a-ix-32--012_anonim--anglaise.krn
!!!cenid: 18xx:523
!!!COM: Anonim
!!!COM-rismID:
!!!CDT:
!!!CNT:
!!!OTL: Anglaise
!!!PDT:
!!!AGN: Secular; Anglaise
!!!SMS-siglum: PL-SA
!!!SMS-shelfmark: 552/A IX 32
!!!SMS-shelfwork: 012 W
!!!SMS-variant:
!!!SMS-altvar:
!!!NIFC-rismSourceID: 1001069504
!!!NIFC-islandoraID:
!!!URL-pdf-islandora:
!!!URL-scan: https://bc.bdsandomierz.pl/dlibra/publication/1308/edition/1276/content @EN{Scan on Cyfrowa Biblioteka Diecezjalna w Sandomierzu} @PL{Skany w portalu Cyfrowa Biblioteka Diecezjalna w Sandomierzu}
!!!ONB-nifc: Str. 7, s. 3
!!!AIN: 1 empty
!!!key:
**kern	**kern
*part1	*part1
*staff2	*staff1
*Iempty	*Iempty
*I"	*I"
*I'keyb	*I'keyb
*clefF4	*clefG2
*k[]	*k[]
*C:	*C:
*M2/4	*M2/4
=1	=1
!	!LO:TX:b:t=P:problem=błędnie wpisane metrum 3/4
!	!LO:TX:a:i:t=An:rj
8c\L 8e	8ee\L
8G\J	16ff\L
.	16ee\JJ
8B\L 8d	8dd\L
8G\J	16ee\L
.	16dd\JJ
=2	=2
8c\L 8e	8cc\L
8G\J	16cc\L
.	16b\JJ
*rep	*
8c\L 8e	8cc\L
8G\J	8dd\J
*Xrep	*
=3	=3
8c\L 8e	8ee\L
8G\J	16ff\L
.	16ee\JJ
8B\L 8d	8dd\L
8G\J	16ee\L
.	16dd\JJ
=4	=4
8c\L 8e	8cc\L
8G\J	8g\J
*rep	*
8c\L 8e	4cc\
8G\J	.
*Xrep	*
=5:|!|:	=5:|!|:
!LO:TX:a:t=P:problem=mixed beam	!
8c\L	8gg\L
8C/J	16gg\L
.	16ee\JJ
8F\L	8aa\L
8A\J	16aa\L
.	16ff\JJ
=6	=6
8G\L	8bb\L
8B\J	16bb\L
.	16gg\JJ
!LO:TX:a:t=P:problem=mixed beam	!
8c\L	8ccc\L
8C/J	16gg\L
.	16ee\JJ
=7	=7
!LO:TX:a:t=P:problem=mixed beam	!
8c\L	8gg\L
8C/J	16gg\L
.	16ee\JJ
8F\L	8aa\L
8A\J	16aa\L
.	16ff\JJ
=8	=8
8G\L	8b\L
8B\J	8g\J
!LO:TX:a:t=P:problem=mixed beam	!LO:TX:a:t=P:problem=podwójna kreska taktowa z obustronną repetycją
8c\L	4cc\
8C/J	.
=:|!	=:|!
*-	*-
!!!system-decoration: {(s1,s2)}
!!!RDF**kern: > = above
!!!RDF**kern: < = below
!!!EED: Mateusz Mrugas
!!!EEV: 2020-12-12
!!!ENC: Anastazja Marusiak
!!!END: 2020-06-17
